X:1
T:Title
%%score 1 { 2 | 3 }
L:1/8
Q:1/4=108
M:4/4
K:Eb
V:1 treble nm="Grand Piano, Soprano"
V:2 bass nm="Choir Pad, Request, 88.86"
V:3 bass 
V:1
 [EG]2 [EB]2 [EG]2 [CF]2 | [B,E]2 [B,E]2- [B,E][B,D] [B,D]2 | E2 [DF]2 [EG]2 [DA]2 | %3
w: By~A.~M.~Lloyd,~early~20th~Century * * *|||
 [DB]2 [EA]2- [EA][EG] [EG]2 | [DB]2 [Ee]2 [EB]2 [EA]2 | [EG]2 [EG]2- [EG][EF] [EF]2 | %6
w: |||
 [=EG]2 [FA]2 [_EA]2 [DG]2 | [DF]2 E6- | E2 z2 z4 |] %9
w: |||
V:2
 B,2 G,2 B,2 A,2 | G,2 A,2- A,A, A,2 | G,2 A,2 G,2 F,2 | B,2 B,2- B,B, B,2 | %4
 B,2 B,2[K:treble] _D2 C2 | B,2 C2- CC C2 | C2 C2[K:bass] C2 B,2 | A,2 G,6- | G,2 z2 z4 |] %9
V:3
 E,2 E,2 E,2 E,2 | E,2 B,,2- B,,B,, B,,2 | B,,2 B,,2 B,,2 B,,2 | B,,2 E,2- E,E, E,2 | %4
 A,2 G,2 E,2 E,2 | E,2 A,,2- A,,A,, A,,2 | G,,2 F,,2 F,,2 B,,2 | B,,2 [E,,E,]6- | [E,,E,]2 z2 z4 |] %9

